dist/svg/static/documents-large.svg

<svg xmlns="http://www.w3.org/2000/svg" width="48" height="48" viewBox="0 0 48 48"><g fill="none" stroke="currentColor" stroke-miterlimit="10"><path d="M12 38.5h23m-23-6h23m-23-6h23m-5.5-24v11h11"/><path d="M40.5 13.5v32h-34v-43h23l11 11z"/></g></svg>

<?xml version="1.0" encoding="UTF-8" standalone="no"?>
<svg width="48px" height="48px" viewBox="0 0 48 48" version="1.1" xmlns="http://www.w3.org/2000/svg" xmlns:xlink="http://www.w3.org/1999/xlink">
    <!-- Generator: sketchtool 46.2 (44496) - http://www.bohemiancoding.com/sketch -->
    <title>documents-large</title>
    <desc>Created with sketchtool.</desc>
    <defs></defs>
    <g id="icons-published" stroke="none" stroke-width="1" fill="none" fill-rule="evenodd">
        <g id="briefing" transform="translate(-3456.000000, -410.000000)"></g>
        <g id="documents-large" stroke="#000000">
            <path d="M12,38.5 L35,38.5 M12,32.5 L35,32.5 M12,26.5 L35,26.5 M29.5,2.5 L29.5,13.5 L40.5,13.5" id="Shape"></path>
            <polygon id="Shape" points="40.5 13.5 40.5 45.5 6.5 45.5 6.5 2.5 29.5 2.5"></polygon>
        </g>
    </g>
</svg>
